public/avatar/hat/55.svg

<svg xmlns:xlink="http://www.w3.org/1999/xlink" height="92.9" width="100.7" xmlns="http://www.w3.org/2000/svg"><g transform="translate(38.65 49.75)"><use height="39.9" transform="translate(-28.05 -6.75)" width="55.5" xlink:href="#a"/><use height="11.05" transform="translate(21.9 26.25)" width="10.15" xlink:href="#b"/><use height="11.05" transform="translate(-32.6 27.15)" width="10.15" xlink:href="#b"/></g><defs><g id="a"><path d="M1.05-4.2 5.6-5.65q4.45-1.75 8.65 1.6 3.75 3 4.9 7.75Q20.2 8 20.6 12.65l.15 1.8q.2 2.45.55 4.75l-1.65-2.95q-1.1-1.65-2.85-1.35v-.4l-1.65-5.8-1.35-4.65L10.65 1Q6.5-2.85 1.05-4.2M-20.5 18.45l.35-4.95.75-5.2.85-4.55.75-2.2 1.75-2.95 2.35-2.55q1.45-1.2 3.15-1.85l4.35-.15L-.65-4.2q-4.8.95-8.5 4.25-3.8 3.3-5.15 8.2-1.7 4.5-2 6.2v.05q-1.45 0-2.55 1.2-1.1 1.2-1.65 2.75" fill="#900" fill-rule="evenodd" transform="translate(28.05 6.75)"/><path d="M1.05-4.2Q6.5-2.85 10.65 1l3.15 3.05 1.35 4.65-2.5 2.45Q11.4 7.7 6.45 5.1q-5-2.6-9.9-1.25t-8.9 5.6l-1.95-1.2q1.35-4.9 5.15-8.2 3.7-3.3 8.5-4.25h1.7M16.8 14.9q1.75-.3 2.85 1.35l1.65 2.95 1.1 5.65q.85 3.7 4.55 6.9-4.65-1.5-7.2-6.1-2.85-5-2.95-10.75M13.75 4.05h.05-.05l-.25.05h-.25.25l.25-.05M-16.3 14.5l-.25 1.4q-.6 5.6-2.75 10.6-2.45 5.6-8.25 6.15v-.35q1.85-1 3.5-3 1.95-2.45 2.45-3.8.5-1.4.8-4.25l.25-2.5.05-.3q.55-1.55 1.65-2.75 1.1-1.2 2.55-1.2" fill="#c00" fill-rule="evenodd" transform="translate(28.05 6.75)"/><path d="M21.3 19.2q-.35-2.3-.55-4.75l-.15-1.8Q20.2 8 19.15 3.7 18-1.05 14.25-4.05q-4.2-3.35-8.65-1.6L1.05-4.2Q6.5-2.85 10.65 1l3.15 3.05 1.35 4.65 1.65 5.8v.4q.1 5.75 2.95 10.75 2.55 4.6 7.2 6.1-3.7-3.2-4.55-6.9l-1.1-5.65m-41.8-.75.35-4.95.75-5.2.85-4.55.75-2.2 1.75-2.95 2.35-2.55q1.45-1.2 3.15-1.85l4.35-.15L-.65-4.2h1.7M-16.3 14.5l-.25 1.4q-.6 5.6-2.75 10.6-2.45 5.6-8.25 6.15m0-.35q1.85-1 3.5-3 1.95-2.45 2.45-3.8.5-1.4.8-4.25l.25-2.5m4.25-4.3q.3-1.7 2-6.2 1.35-4.9 5.15-8.2 3.7-3.3 8.5-4.25" fill="none" stroke="#600" stroke-linecap="round" stroke-linejoin="round" transform="translate(28.05 6.75)"/><path d="M41.85 10.8h-.05" fill="none" stroke="#5280c4" stroke-linecap="round" stroke-linejoin="round" stroke-width=".05"/><path d="m-20.55 18.75.05-.3m4.2-3.95v-.05" fill="none" stroke="#4d769d" stroke-linecap="round" stroke-linejoin="round" transform="translate(28.05 6.75)"/><path d="m13.3 5.4-.25.05h-.25.25l.25-.05h.05l1.7-.3 1.1 1.35L14.9 7.8l2.35 1.3v.45l-1.7 1.25.65 1.1.1.7-.4.25-.45.15-1.4.5q-.75-1.9.1-2.65l.25-.2-.05-.65q-.3-.95.1-1.8-1.85-.35-2.15-2.15-1.3.7-2.7.25l-.85-.55-.9-1.05Q6.6 5.65 5 5.6q-1.35-.3-2.2-1.45-.9.85-2.1.65-.7-.05-1.35-.45-1.6 1.75-3.45.35l-1.7 1.15-1.3-.45-1.4.75-2.55-.05q.1.75-.75 1.1l-1.35.15-.1-.05-.35-.25.2.4-.55 1-.9.1-.3 2.15-1.45-.5.85-1.7-1.1-1.4.25-.8.85-.5.55-.2 1.5.1.15-1.35.65-.2.25-.1 1.3.65.45-.5q1.55-1.7 3.35-.2l1.8-1.1 1.75.7Q-2.15 2.5.05 3l.3-.25 1.95-.4q.8-.25 1.5.35l2.2-1 .45.2q.85.55.85 1.45l2.1-.75.65.5.25 1.1 3 1.2" fill="#fff" fill-rule="evenodd" transform="translate(28.05 6.75)"/><path d="m-13.4 7.45-.2-.4.35.25-.15.15" fill="#98afc0" fill-rule="evenodd" transform="translate(28.05 6.75)"/><path d="m-15.15 10.7.3-2.15.9-.1.55-1 .15-.15.1.05 1.35-.15q.85-.35.75-1.1l2.55.05 1.4-.75 1.3.45 1.7-1.15q1.85 1.4 3.45-.35.65.4 1.35.45 1.2.2 2.1-.65Q3.65 5.3 5 5.6q1.6.05 2.85-.9l.9 1.05.85.55q1.4.45 2.7-.25.3 1.8 2.15 2.15-.4.85-.1 1.8l.05.65-.25.2q-.85.75-.1 2.65L11.4 8.25Q5.85 6.8.05 6.8q-4.35 0-8.5.95l-2.9.7-2.75 4-1.05-.05-.25-.2-.05-.2v-.35l.1-.4.2-.55" fill="#bad7f5" fill-rule="evenodd" transform="translate(28.05 6.75)"/><path d="M42.1 20.25v1" fill="none" stroke="#000" stroke-linecap="round" stroke-linejoin="round" stroke-width=".05"/><path d="M12.8 5.45h.25l.25-.05-3-1.2-.25-1.1-.65-.5-2.1.75q0-.9-.85-1.45L6 1.7l-2.2 1q-.7-.6-1.5-.35l-1.95.4-.3.25q-2.2-.5-4.05.6l-1.75-.7-1.8 1.1q-1.8-1.5-3.35.2l-.45.5-1.3-.65m-.25.1-.65.2-.15 1.35-1.5-.1-.55.2-.85.5-.25.8 1.1 1.4-.85 1.7 1.45.5-.2.55-.1.4V12l.05.2.25.2 1.05.05 2.75-4 2.9-.7Q-4.3 6.8.05 6.8q5.8 0 11.35 1.45l2.65 5.25 1.4-.5.45-.15.4-.25-.1-.7-.65-1.1 1.7-1.25V9.1L14.9 7.8l1.25-1.35-1.1-1.35-1.7.3h-.05" fill="none" stroke="#5280c4" stroke-linecap="round" stroke-linejoin="round" transform="translate(28.05 6.75)"/></g><g id="c"><path d="m8.05 5.15-1.4-.2q-.5 2.45-1.15.5.1 1.05-.75 1.6Q3 8.25 3.2 6.15q-2.05.95-1.9-2Q-.55 1.6 2.8 1.9 2.75.1 4.3 0q1.3-.05 1.35 1.4l.3-.65q.45-1 1.3-.5 1.55.95.8 2.45 1.05.1 1.1 1.45 0 1.35-1.1 1" fill="#fff" fill-rule="evenodd" transform="translate(.5 .5)"/><path d="M1.3 4.15q-.15 2.95 1.9 2-.2 2.1 1.55.9.85-.55.75-1.6.65 1.95 1.15-.5l1.4.2q1.75 3-1.25 2.75.2.65-.1 1.35l-.45.4Q4.6 9.9 4.4 8.8q-.2 1.45-1.45 1.25-1.3-.2-.65-1.5l-1.05-.1q-1.35-.7-.2-1.9-.8-.1-1-.8Q-.3 4.1 1.3 4.15" fill="#bad7f5" fill-rule="evenodd" transform="translate(.5 .5)"/><path d="M8.05 5.15q1.1.35 1.1-1Q9.1 2.8 8.05 2.7q.75-1.5-.8-2.45-.85-.5-1.3.5l-.3.65Q5.6-.05 4.3 0 2.75.1 2.8 1.9q-3.35-.3-1.5 2.25Q-.3 4.1.05 5.75q.2.7 1 .8-1.15 1.2.2 1.9l1.05.1q-.65 1.3.65 1.5 1.25.2 1.45-1.25.2 1.1 1.85.85l.45-.4q.3-.7.1-1.35 3 .25 1.25-2.75Z" fill="none" stroke="#5280c4" stroke-linecap="round" stroke-linejoin="round" transform="translate(.5 .5)"/></g><use height="11.05" width="10.15" xlink:href="#c" id="b"/></defs></svg>

<?xml version="1.0" encoding="UTF-8" standalone="no"?>
<svg xmlns:xlink="http://www.w3.org/1999/xlink" height="92.9px" width="100.7px" xmlns="http://www.w3.org/2000/svg">
  <g transform="matrix(1.0, 0.0, 0.0, 1.0, 38.65, 49.75)">
    <use height="39.9" transform="matrix(1.0, 0.0, 0.0, 1.0, -28.05, -6.75)" width="55.5" xlink:href="#shape0"/>
    <use height="11.05" transform="matrix(1.0, 0.0, 0.0, 1.0, 21.9, 26.25)" width="10.15" xlink:href="#sprite0"/>
    <use height="11.05" transform="matrix(1.0, 0.0, 0.0, 1.0, -32.6, 27.15)" width="10.15" xlink:href="#sprite0"/>
  </g>
  <defs>
    <g id="shape0" transform="matrix(1.0, 0.0, 0.0, 1.0, 28.05, 6.75)">
      <path d="M1.05 -4.2 L5.6 -5.65 Q10.05 -7.4 14.25 -4.05 18.0 -1.05 19.15 3.7 20.2 8.0 20.6 12.65 L20.75 14.45 Q20.95 16.9 21.3 19.2 L19.65 16.25 Q18.55 14.6 16.8 14.9 L16.8 14.55 16.8 14.5 15.15 8.7 13.8 4.05 10.65 1.0 Q6.5 -2.85 1.05 -4.2 M-20.5 18.45 L-20.15 13.5 -19.4 8.3 -18.55 3.75 -17.8 1.55 -16.05 -1.4 -13.7 -3.95 Q-12.25 -5.15 -10.55 -5.8 L-6.2 -5.95 -0.65 -4.2 Q-5.45 -3.25 -9.15 0.05 -12.95 3.35 -14.3 8.25 -16.0 12.75 -16.3 14.45 L-16.3 14.5 Q-17.75 14.5 -18.85 15.7 -19.95 16.9 -20.5 18.45" fill="#990000" fill-rule="evenodd" stroke="none"/>
      <path d="M1.05 -4.2 Q6.5 -2.85 10.65 1.0 L13.8 4.05 15.15 8.7 12.65 11.15 Q11.4 7.7 6.45 5.1 1.45 2.5 -3.45 3.85 -8.35 5.2 -12.35 9.45 L-14.3 8.25 Q-12.95 3.35 -9.15 0.05 -5.45 -3.25 -0.65 -4.2 L1.05 -4.2 M16.8 14.9 Q18.55 14.6 19.65 16.25 L21.3 19.2 22.4 24.85 Q23.25 28.55 26.95 31.75 22.3 30.25 19.75 25.65 16.9 20.65 16.8 14.9 M13.75 4.05 L13.8 4.05 13.75 4.05 13.5 4.1 13.25 4.1 13.5 4.1 13.75 4.05 M-16.3 14.5 L-16.55 15.9 Q-17.15 21.5 -19.3 26.5 -21.75 32.1 -27.55 32.65 L-27.55 32.3 Q-25.7 31.3 -24.05 29.3 -22.1 26.85 -21.6 25.5 -21.1 24.1 -20.8 21.25 L-20.55 18.75 -20.5 18.45 Q-19.95 16.9 -18.85 15.7 -17.75 14.5 -16.3 14.5" fill="#cc0000" fill-rule="evenodd" stroke="none"/>
      <path d="M21.3 19.2 Q20.95 16.9 20.75 14.45 L20.6 12.65 Q20.2 8.0 19.15 3.7 18.0 -1.05 14.25 -4.05 10.05 -7.4 5.6 -5.65 L1.05 -4.2 Q6.5 -2.85 10.65 1.0 L13.8 4.05 15.15 8.7 16.8 14.5 16.8 14.55 16.8 14.9 Q16.9 20.65 19.75 25.65 22.3 30.25 26.95 31.75 23.25 28.55 22.4 24.85 L21.3 19.2 M-20.5 18.45 L-20.15 13.5 -19.4 8.3 -18.55 3.75 -17.8 1.55 -16.05 -1.4 -13.7 -3.95 Q-12.25 -5.15 -10.55 -5.8 L-6.2 -5.95 -0.65 -4.2 1.05 -4.2 M-16.3 14.5 L-16.55 15.9 Q-17.15 21.5 -19.3 26.5 -21.75 32.1 -27.55 32.65 M-27.55 32.3 Q-25.7 31.3 -24.05 29.3 -22.1 26.85 -21.6 25.5 -21.1 24.1 -20.8 21.25 L-20.55 18.75 M-16.3 14.45 Q-16.0 12.75 -14.3 8.25 -12.95 3.35 -9.15 0.05 -5.45 -3.25 -0.65 -4.2" fill="none" stroke="#660000" stroke-linecap="round" stroke-linejoin="round" stroke-width="1.0"/>
      <path d="M13.8 4.05 L13.75 4.05" fill="none" stroke="#5280c4" stroke-linecap="round" stroke-linejoin="round" stroke-width="0.05"/>
      <path d="M-20.55 18.75 L-20.5 18.45 M-16.3 14.5 L-16.3 14.45" fill="none" stroke="#4d769d" stroke-linecap="round" stroke-linejoin="round" stroke-width="1.0"/>
      <path d="M13.3 5.4 L13.05 5.45 12.8 5.45 13.05 5.45 13.3 5.4 13.35 5.4 15.05 5.1 16.15 6.45 14.9 7.8 17.25 9.1 17.25 9.55 15.55 10.8 16.2 11.9 16.3 12.6 15.9 12.85 15.45 13.0 14.05 13.5 Q13.3 11.6 14.15 10.85 L14.4 10.65 14.35 10.0 Q14.05 9.05 14.45 8.2 12.6 7.85 12.3 6.05 11.0 6.75 9.6 6.3 L8.75 5.75 7.85 4.7 Q6.6 5.65 5.0 5.6 3.65 5.3 2.8 4.15 1.9 5.0 0.7 4.8 0.0 4.75 -0.65 4.35 -2.25 6.1 -4.1 4.7 L-5.8 5.85 -7.1 5.4 -8.5 6.15 -11.05 6.1 Q-10.95 6.85 -11.8 7.2 L-13.15 7.35 -13.25 7.3 -13.6 7.05 -13.4 7.45 -13.95 8.45 -14.85 8.55 -15.15 10.7 -16.6 10.2 -15.75 8.5 -16.85 7.1 -16.6 6.3 -15.75 5.8 -15.2 5.6 -13.7 5.7 -13.55 4.35 -12.9 4.15 -12.65 4.05 -11.35 4.7 -10.9 4.2 Q-9.35 2.5 -7.55 4.0 L-5.75 2.9 -4.0 3.6 Q-2.15 2.5 0.05 3.0 L0.35 2.75 2.3 2.35 Q3.1 2.1 3.8 2.7 L6.0 1.7 6.45 1.9 Q7.3 2.45 7.3 3.35 L9.4 2.6 10.05 3.1 10.3 4.2 13.3 5.4" fill="#ffffff" fill-rule="evenodd" stroke="none"/>
      <path d="M-13.4 7.45 L-13.6 7.05 -13.25 7.3 -13.4 7.45" fill="#98afc0" fill-rule="evenodd" stroke="none"/>
      <path d="M-15.15 10.7 L-14.85 8.55 -13.95 8.45 -13.4 7.45 -13.25 7.3 -13.15 7.35 -11.8 7.2 Q-10.95 6.85 -11.05 6.1 L-8.5 6.15 -7.1 5.4 -5.8 5.85 -4.1 4.7 Q-2.25 6.1 -0.65 4.35 0.0 4.75 0.7 4.8 1.9 5.0 2.8 4.15 3.65 5.3 5.0 5.6 6.6 5.65 7.85 4.7 L8.75 5.75 9.6 6.3 Q11.0 6.75 12.3 6.05 12.6 7.85 14.45 8.2 14.05 9.05 14.35 10.0 L14.4 10.65 14.15 10.85 Q13.3 11.6 14.05 13.5 L11.4 8.25 Q5.85 6.8 0.05 6.8 -4.3 6.8 -8.45 7.75 L-11.35 8.45 -14.1 12.45 -15.15 12.4 -15.4 12.2 -15.45 12.0 -15.45 11.65 -15.35 11.25 -15.15 10.7" fill="#bad7f5" fill-rule="evenodd" stroke="none"/>
      <path d="M14.05 13.5 L14.05 14.5" fill="none" stroke="#000000" stroke-linecap="round" stroke-linejoin="round" stroke-width="0.05"/>
      <path d="M12.8 5.45 L13.05 5.45 13.3 5.4 10.3 4.2 10.05 3.1 9.4 2.6 7.3 3.35 Q7.3 2.45 6.45 1.9 L6.0 1.7 3.8 2.7 Q3.1 2.1 2.3 2.35 L0.35 2.75 0.05 3.0 Q-2.15 2.5 -4.0 3.6 L-5.75 2.9 -7.55 4.0 Q-9.35 2.5 -10.9 4.2 L-11.35 4.7 -12.65 4.05 M-12.9 4.15 L-13.55 4.35 -13.7 5.7 -15.2 5.6 -15.75 5.8 -16.6 6.3 -16.85 7.1 -15.75 8.5 -16.6 10.2 -15.15 10.7 -15.35 11.25 -15.45 11.65 -15.45 12.0 -15.4 12.2 -15.15 12.4 -14.1 12.45 -11.35 8.45 -8.45 7.75 Q-4.3 6.8 0.05 6.8 5.85 6.8 11.4 8.25 L14.05 13.5 15.45 13.0 15.9 12.85 16.3 12.6 16.2 11.9 15.55 10.8 17.25 9.55 17.25 9.1 14.9 7.8 16.15 6.45 15.05 5.1 13.35 5.4 13.3 5.4" fill="none" stroke="#5280c4" stroke-linecap="round" stroke-linejoin="round" stroke-width="1.0"/>
    </g>
    <g id="sprite0" transform="matrix(1.0, 0.0, 0.0, 1.0, 0.5, 0.5)">
      <use height="11.05" transform="matrix(1.0, 0.0, 0.0, 1.0, -0.5, -0.5)" width="10.15" xlink:href="#shape1"/>
    </g>
    <g id="shape1" transform="matrix(1.0, 0.0, 0.0, 1.0, 0.5, 0.5)">
      <path d="M8.05 5.15 L6.65 4.95 Q6.15 7.4 5.5 5.45 5.6 6.5 4.75 7.05 3.0 8.25 3.2 6.15 1.15 7.1 1.3 4.15 -0.55 1.6 2.8 1.9 2.75 0.1 4.3 0.0 5.6 -0.05 5.65 1.4 L5.95 0.75 Q6.4 -0.25 7.25 0.25 8.8 1.2 8.05 2.7 9.1 2.8 9.15 4.15 9.15 5.5 8.05 5.15" fill="#ffffff" fill-rule="evenodd" stroke="none"/>
      <path d="M1.3 4.15 Q1.15 7.1 3.2 6.15 3.0 8.25 4.75 7.05 5.6 6.5 5.5 5.45 6.15 7.4 6.65 4.95 L8.05 5.15 Q9.8 8.15 6.8 7.9 7.0 8.55 6.7 9.25 L6.25 9.65 Q4.6 9.9 4.4 8.8 4.2 10.25 2.95 10.05 1.65 9.85 2.3 8.55 L1.25 8.45 Q-0.1 7.75 1.05 6.55 0.25 6.45 0.05 5.75 -0.3 4.1 1.3 4.15" fill="#bad7f5" fill-rule="evenodd" stroke="none"/>
      <path d="M8.05 5.15 Q9.15 5.5 9.15 4.15 9.1 2.8 8.05 2.7 8.8 1.2 7.25 0.25 6.4 -0.25 5.95 0.75 L5.65 1.4 Q5.6 -0.05 4.3 0.0 2.75 0.1 2.8 1.9 -0.55 1.6 1.3 4.15 -0.3 4.1 0.05 5.75 0.25 6.45 1.05 6.55 -0.1 7.75 1.25 8.45 L2.3 8.55 Q1.65 9.85 2.95 10.05 4.2 10.25 4.4 8.8 4.6 9.9 6.25 9.65 L6.7 9.25 Q7.0 8.55 6.8 7.9 9.8 8.15 8.05 5.15 Z" fill="none" stroke="#5280c4" stroke-linecap="round" stroke-linejoin="round" stroke-width="1.0"/>
    </g>
  </defs>
</svg>
